src/img/crowdfunding/lifestyle-lease.svg

<svg width="71" height="71" viewBox="0 0 71 71" fill="none" xmlns="http://www.w3.org/2000/svg">
<path d="M23.667 0C13.864 0 5.91699 7.94697 5.91699 17.75V30.7667C5.92217 35.3392 9.62778 39.0448 14.2003 39.05H15.3837V36.6833H14.2003C10.9343 36.6795 8.2875 34.0327 8.28366 30.7667V17.75C8.28366 9.25396 15.171 2.36667 23.667 2.36667C32.163 2.36667 39.0503 9.25396 39.0503 17.75V30.7667C39.0465 34.0327 36.3997 36.6795 33.1337 36.6833H31.9503V39.05H33.1337C37.7062 39.0448 41.4118 35.3392 41.417 30.7667V17.75C41.417 7.94697 33.47 0 23.667 0Z" fill="#307BF0"/>
<path d="M9.75178 55.7692L10.6168 54.4072L8.61815 53.1387L7.75313 54.5019C5.13693 58.6246 5.33114 63.933 8.24185 67.8534V70.9999H10.6085V67.4499C10.6087 67.1811 10.5173 66.9202 10.3494 66.7103C7.8336 63.5653 7.59353 59.1695 9.75178 55.7692Z" fill="#307BF0"/>
<path d="M65.0832 0H49.6999C46.4339 0.00384583 43.787 2.65067 43.7832 5.91667V17.75C43.787 21.016 46.4339 23.6628 49.6999 23.6667H52.0665V28.4C52.0664 28.8785 52.3545 29.3101 52.7967 29.4934C52.9403 29.5533 53.0943 29.5838 53.2499 29.5833C53.5637 29.5833 53.8646 29.4585 54.0865 29.2366L59.6564 23.6667H65.0832C68.3492 23.6628 70.996 21.016 70.9999 17.75V5.91667C70.996 2.65067 68.3492 0.00384583 65.0832 0ZM68.6332 17.75C68.6332 19.7106 67.0438 21.3 65.0832 21.3H59.1665C58.8527 21.3 58.5518 21.4248 58.3299 21.6467L54.4332 25.5434V22.4833C54.4332 21.8298 53.9034 21.3 53.2499 21.3H49.6999C47.7392 21.3 46.1499 19.7106 46.1499 17.75V5.91667C46.1499 3.95603 47.7392 2.36667 49.6999 2.36667H65.0832C67.0438 2.36667 68.6332 3.95603 68.6332 5.91667V17.75Z" fill="#307BF0"/>
<path d="M57.9835 5.91675H49.7002V8.28341H57.9835V5.91675Z" fill="#213C94"/>
<path d="M65.0829 5.91675H60.3496V8.28341H65.0829V5.91675Z" fill="#213C94"/>
<path d="M65.0835 10.6499H49.7002V13.0166H65.0835V10.6499Z" fill="#213C94"/>
<path d="M57.9835 15.3833H49.7002V17.75H57.9835V15.3833Z" fill="#213C94"/>
<path d="M39.5805 54.5019L38.7154 53.1387L36.7168 54.4072L37.5818 55.7704C39.7402 59.1703 39.5001 63.5658 36.9842 66.7103C36.8163 66.9202 36.7249 67.1811 36.7251 67.4499V70.9999H39.0917V67.8534C42.0025 63.933 42.1967 58.6246 39.5805 54.5019Z" fill="#307BF0"/>
<path d="M69.8167 40.2334H59.1667C54.7268 40.2386 51.0807 43.7433 50.8999 48.1795L47.3333 54.6002V49.7001C47.3282 45.1275 43.6225 41.4219 39.05 41.4167H34.7249L34.693 41.3919L34.6717 41.4167H31.95C30.6429 41.4167 29.5833 40.3572 29.5833 39.0501V36.2657C33.2397 34.1546 35.4944 30.2554 35.5 26.0334V16.5667C35.4982 14.6061 35.0104 12.6765 34.08 10.9506C33.7819 10.4016 33.1083 10.1787 32.5417 10.4418L12.5126 19.8659C12.0978 20.0611 11.8332 20.4784 11.8333 20.9368V26.0334C11.839 30.2554 14.0936 34.1546 17.75 36.2657V39.0501C17.75 40.3572 16.6905 41.4167 15.3833 41.4167H8.28333C3.71079 41.4219 0.00517708 45.1275 0 49.7001V71.0001H2.36667V49.7001C2.37051 46.4341 5.01733 43.7872 8.28333 43.7834H12.0487L22.7046 58.6721C22.9235 58.9781 23.275 59.1617 23.6513 59.1667H23.6667C24.0391 59.1667 24.3898 58.9913 24.6133 58.6934L35.855 43.7834H39.05C42.316 43.7872 44.9628 46.4341 44.9667 49.7001V59.1667C44.9673 59.8202 45.4975 60.3496 46.151 60.349C46.5803 60.3486 46.9757 60.1159 47.1842 59.7406L52.7625 49.7001H59.5465L48.009 71.0001H50.7011L62.2433 49.7001H62.7167C67.2892 49.6949 70.9948 45.9893 71 41.4167C71 40.7632 70.4702 40.2334 69.8167 40.2334ZM14.2 26.0334V21.6882L32.4718 13.0901C32.9089 14.1971 33.1333 15.3766 33.1333 16.5667V26.0334C33.1333 31.2617 28.8949 35.5001 23.6667 35.5001C18.4384 35.5001 14.2 31.2617 14.2 26.0334ZM23.6915 55.9859L20.0397 50.8834H27.5373L23.6915 55.9859ZM29.3277 48.5167H18.3417L14.9538 43.7834H15.3833C17.9975 43.7834 20.1167 41.6642 20.1167 39.0501V37.3212C22.4274 38.0485 24.9059 38.0485 27.2167 37.3212V39.0501C27.2167 41.6642 29.3359 43.7834 31.95 43.7834H32.8967L29.3277 48.5167ZM62.7167 47.3334H53.3683C53.9341 44.5802 56.356 42.6032 59.1667 42.6001H68.515C67.9492 45.3532 65.5274 47.3303 62.7167 47.3334Z" fill="#213C94"/>
</svg>

<svg xmlns="http://www.w3.org/2000/svg" width="71" height="71" fill="none"><path fill="#307BF0" d="M23.67 0C13.87 0 5.92 7.95 5.92 17.75v13.02a8.3 8.3 0 008.28 8.28h1.18v-2.37H14.2a5.92 5.92 0 01-5.92-5.91V17.75a15.38 15.38 0 1130.77 0v13.02a5.92 5.92 0 01-5.92 5.91h-1.18v2.37h1.18a8.3 8.3 0 008.29-8.28V17.75C41.42 7.95 33.47 0 23.67 0zM9.75 55.77l.87-1.36-2-1.27-.87 1.36a11.8 11.8 0 00.5 13.35V71h2.36v-3.55c0-.27-.1-.53-.26-.74a9.43 9.43 0 01-.6-10.94zM65.08 0H49.7a5.92 5.92 0 00-5.92 5.92v11.83a5.92 5.92 0 005.92 5.92h2.37v4.73a1.18 1.18 0 002.02.84l5.57-5.57h5.42A5.92 5.92 0 0071 17.75V5.92A5.92 5.92 0 0065.08 0zm3.55 17.75a3.55 3.55 0 01-3.55 3.55h-5.91c-.32 0-.62.12-.84.35l-3.9 3.9v-3.07c0-.65-.53-1.18-1.18-1.18H49.7a3.55 3.55 0 01-3.55-3.55V5.92a3.55 3.55 0 013.55-3.55h15.38a3.55 3.55 0 013.55 3.55v11.83z"/><path fill="#213C94" d="M57.98 5.92H49.7v2.36h8.28V5.92zM65.08 5.92h-4.73v2.36h4.73V5.92zM65.08 10.65H49.7v2.37h15.38v-2.37zM57.98 15.38H49.7v2.37h8.28v-2.37z"/><path fill="#307BF0" d="M39.58 54.5l-.86-1.36-2 1.27.86 1.36a9.43 9.43 0 01-.6 10.94c-.16.21-.26.47-.25.74V71h2.36v-3.15a11.8 11.8 0 00.49-13.35z"/><path fill="#213C94" d="M69.82 40.23H59.17a8.28 8.28 0 00-8.27 7.95l-3.57 6.42v-4.9a8.3 8.3 0 00-8.28-8.28h-4.33l-.03-.03-.02.03h-2.72a2.37 2.37 0 01-2.37-2.37v-2.78a11.83 11.83 0 005.92-10.24v-9.46c0-1.96-.49-3.9-1.42-5.62-.3-.55-.97-.77-1.54-.5l-20.03 9.42c-.41.2-.68.6-.68 1.07v5.1c0 4.22 2.26 8.11 5.92 10.23v2.78c0 1.3-1.06 2.37-2.37 2.37h-7.1A8.3 8.3 0 000 49.7V71h2.37V49.7a5.92 5.92 0 015.91-5.92h3.77l10.65 14.9c.22.3.57.48.95.49h.02c.37 0 .72-.18.94-.48l11.24-14.9h3.2a5.92 5.92 0 015.92 5.91v9.47a1.18 1.18 0 002.21.57l5.58-10.04h6.79L48 71h2.7l11.53-21.3h.48A8.3 8.3 0 0071 41.42c0-.66-.53-1.19-1.18-1.19zM14.2 26.03V21.7l18.27-8.6c.44 1.1.66 2.29.66 3.48v9.46a9.47 9.47 0 11-18.93 0zM23.7 56l-3.66-5.1h7.5l-3.85 5.1zm5.63-7.47H18.34l-3.39-4.74h.43a4.73 4.73 0 004.74-4.73v-1.73c2.3.73 4.79.73 7.1 0v1.73a4.73 4.73 0 004.73 4.73h.95l-3.57 4.74zm33.39-1.19h-9.35a5.93 5.93 0 015.8-4.73h9.34a5.93 5.93 0 01-5.8 4.73z"/></svg>
